X: 4
T:The Road to Errogie (R-176; ©Adam Sutherland)
S:Scottish reel, originally in B major
Z:
M:C|
L:1/8
K:A
AF|"A"EA A2 "E"BABc|"A"eA A2 "E"Bcea|"D"f3f "A/C#"ecAc|"Bm"BABc "E"BAFA|
"A"EA A2 "E"BABc|"A"eA A2 "E"Bcea|"D"f3f "A"ecAc|"E"BABc "A"A2:|
ce|"A"a2-a a-a2ba|"A/C#"c'3b a3 e|"D"f2 ea- "A"ae f2-|"Bm"feae "E"fece|
"A"a2-a a-a2ba|"A/C#"c'3b a3 e|"D"f3 a "A"ecAc |"E"BABc "A"A2 ce|
"A"a2-a a-a2ba|"A7/C#"c'3b a3 e|"D"f2 ea- "A"ae f2-|"Bm"feae "E"fece|
"A"EA A2 "E"BABc|"A"eA A2 "E"Bcea|"D"f3f "A"ecAc|"E"BABc "A"A2|]
%%text Ending: Choke the last note
%%textfont Times-Roman 7
%%text 08/10/2009 

#include "LeftHeader.h"
%%text Set 101, NEFFA '10 Jigs Set
$SmallRMargin
$SmallLMargin
%%scale .8
